_includes/icon-info.svg

<svg xmlns="http://www.w3.org/2000/svg" viewBox="0 0 50 50">
  <path style="line-height:normal;text-indent:0;text-align:start;text-decoration-line:none;text-decoration-style:solid;text-decoration-color:#000;text-transform:none;block-progression:tb;isolation:auto;mix-blend-mode:normal" d="M25 2C12.309295 2 2 12.309295 2 25s10.309295 23 23 23 23-10.309295 23-23S37.690705 2 25 2zm0 2c11.609824 0 21 9.390176 21 21s-9.390176 21-21 21S4 36.609824 4 25 13.390176 4 25 4zm0 7a3 3 0 0 0-3 3 3 3 0 0 0 3 3 3 3 0 0 0 3-3 3 3 0 0 0-3-3zm-4 10v2h2v13h-2v2h8v-2h-2V21h-6z" font-weight="400" font-family="sans-serif" white-space="normal" overflow="visible"/>
</svg>

<?xml version="1.0"?>
<svg xmlns="http://www.w3.org/2000/svg" viewBox="0 0 50 50" width="50px" height="50px">
    <path style="line-height:normal;text-indent:0;text-align:start;text-decoration-line:none;text-decoration-style:solid;text-decoration-color:#000;text-transform:none;block-progression:tb;isolation:auto;mix-blend-mode:normal" d="M 25 2 C 12.309295 2 2 12.309295 2 25 C 2 37.690705 12.309295 48 25 48 C 37.690705 48 48 37.690705 48 25 C 48 12.309295 37.690705 2 25 2 z M 25 4 C 36.609824 4 46 13.390176 46 25 C 46 36.609824 36.609824 46 25 46 C 13.390176 46 4 36.609824 4 25 C 4 13.390176 13.390176 4 25 4 z M 25 11 A 3 3 0 0 0 22 14 A 3 3 0 0 0 25 17 A 3 3 0 0 0 28 14 A 3 3 0 0 0 25 11 z M 21 21 L 21 23 L 22 23 L 23 23 L 23 36 L 22 36 L 21 36 L 21 38 L 22 38 L 23 38 L 27 38 L 28 38 L 29 38 L 29 36 L 28 36 L 27 36 L 27 21 L 26 21 L 22 21 L 21 21 z" font-weight="400" font-family="sans-serif" white-space="normal" overflow="visible"/>
</svg>
